X: 200
T:Domine est terra
N: Derived from Jos1612-Domine_est_terra.krn
C: Josquin des Prez
%%abc-version 2.0
%%abcx-abcm2ps-target-version 5.9.1 (29 Sep 2008)
%%abc-creator hum2abc beta
%%abcx-conversion-date 2019/02/12 16:15:47
%%abc-edited-by Jesse Rodin
%%abc-edited-by Jesse Rodin 8/24/2013
%%abcx-initial-encoding-date 2013/08/24/
%%humdrum-veritas 3939474075
%%humdrum-veritas-data 97781332
%%linebreak <none>
%%barnumbers 0
L: 1/4
M: 2/1
Q: 1/2=120
%%staves [1 2 3 4]
V: 1 clef=treble
V: 2 clef=treble
V: 3 clef=treble-8
V: 4 clef=bass
K: F
[V:1] c6c2 | 
[V:2] z8 | 
[V:3] z8 | 
[V:4] z8 | 
[V:1] A4c4 | 
[V:2] F6F2 | 
[V:3] z8 | 
[V:4] z8 | 
[V:1] f6e2 | 
[V:2] D4F4 | 
[V:3] z8 | 
[V:4] z8 | 
[V:1] d4z2c2 | 
[V:2] B6A2 | 
[V:3] z8 | 
[V:4] z8 | 
[V:1] d2e2f3e | 
[V:2] G4z2F2 | 
[V:3] z8 | 
[V:4] z8 | 
[V:1] d2c2d4 | 
[V:2] G2A2B3A | 
[V:3] z8 | 
[V:4] z8 | 
[V:1] e2f3e/d/e2 | 
[V:2] G2A3G/F/G2 | 
[V:3] c6c2 | 
[V:4] z8 | 
[V:1] c8 | 
[V:2] A8- | 
[V:3] A4c4 | 
[V:4] F,6F,2 | 
[V:1] z8 | 
[V:2] A8 | 
[V:3] f6e2 | 
[V:4] D,4F,4 | 
[V:1] z8 | 
[V:2] z8 | 
[V:3] d4z2c2 | 
[V:4] B,6A,2 | 
[V:1] z8 | 
[V:2] z8 | 
[V:3] d2e2f3e | 
[V:4] G,4z2F,2 | 
[V:1] z8 | 
[V:2] z8 | 
[V:3] d2c2d3c | 
[V:4] G,2A,2B,3A, | 
[V:1] z8 | 
[V:2] z8 | 
[V:3] def4e2 | 
[V:4] G,2F,2G,4 | 
[V:1] c4c2c2 | 
[V:2] A4A2F2 | 
[V:3] f8 | 
[V:4] F,8 | 
[V:1] d4c4- | 
[V:2] B4A4 | 
[V:3] z8 | 
[V:4] z8 | 
[V:1] c4z2c2 | 
[V:2] z2F2G2A2 | 
[V:3] z8 | 
[V:4] z8 | 
[V:1] d2e2f4 | 
[V:2] B2A4F2 | 
[V:3] z8 | 
[V:4] z8 | 
[V:1] e2c2d3d | 
[V:2] G2A4G2- | 
[V:3] z8 | 
[V:4] z4B,4 | 
[V:1] c2A2B4 | 
[V:2] G2F4E2 | 
[V:3] z8 | 
[V:4] A,2F,2G,4 | 
[V:1] A4G2c2 | 
[V:2] F4z4 | 
[V:3] f4e2c2 | 
[V:4] F,4z2F,2 | 
[V:1] A2B2c4- | 
[V:2] z8 | 
[V:3] d4c4 | 
[V:4] F,2D,2E,2F,2- | 
[V:1] c8 | 
[V:2] z8 | 
[V:3] z2c2c2A2 | 
[V:4] F,G,A,B,C2F,2 | 
[V:1] z8 | 
[V:2] z8 | 
[V:3] B2c2d2c2- | 
[V:4] G,2F,3E,C,2 | 
[V:1] f4e4 | 
[V:2] z4c4 | 
[V:3] c2=B2c4 | 
[V:4] D,4C,4 | 
[V:1] d4c4 | 
[V:2] B4A4 | 
[V:3] z4f4 | 
[V:4] z8 | 
[V:1] z2c2d2f2- | 
[V:2] G4z2F2 | 
[V:3] e4d4 | 
[V:4] C4B,4 | 
[V:1] f2e4d2- | 
[V:2] c4B3B | 
[V:3] c4z2d2 | 
[V:4] A,4G,4 | 
[V:1] d2c2c2A2 | 
[V:2] A4z2F2 | 
[V:3] f4c2c2 | 
[V:4] z2F,4F,2 | 
[V:1] B4c2fe | 
[V:2] F3GA2A2 | 
[V:3] d4c2d2 | 
[V:4] B,,2B,,2F,2F,2 | 
[V:1] dcc4B2 | 
[V:2] B2A4G2 | 
[V:3] B2c2d4 | 
[V:4] G,2A,2B,4 | 
[V:1] c8 | 
[V:2] A8- | 
[V:3] c4z2c2 | 
[V:4] F,8- | 
[V:1] z2c2c2c2 | 
[V:2] A8 | 
[V:3] c2c2f4- | 
[V:4] F,4z2F,2 | 
[V:1] f6e2 | 
[V:2] z2F2F2F2 | 
[V:3] f2e2d4 | 
[V:4] F,2F,2B,4- | 
[V:1] d4z2G2- | 
[V:2] B6A2 | 
[V:3] G6G2 | 
[V:4] B,2A,2G,4 | 
[V:1] G2G2c4- | 
[V:2] G4C4- | 
[V:3] c6B2 | 
[V:4] C,6C,2 | 
[V:1] c2B2A2G2 | 
[V:2] C2C2F4- | 
[V:3] A2G2F4- | 
[V:4] F,6E,2 | 
[V:1] F4F2G2- | 
[V:2] F2E2D4- | 
[V:3] F4B4- | 
[V:4] D,2C,2B,,4- | 
[V:1] GFF4E2 | 
[V:2] D4C4 | 
[V:3] B2A2G4 | 
[V:4] B,,4C,4 | 
[V:1] F8 | 
[V:2] A,8 | 
[V:3] F4z2A2- | 
[V:4] z2D,4D,2 | 
[V:1] z8 | 
[V:2] z8 | 
[V:3] A2A2c4 | 
[V:4] F,4F,4 | 
[V:1] z8 | 
[V:2] z8 | 
[V:3] c4z2c2 | 
[V:4] z2F,2G,2A,2 | 
[V:1] z8 | 
[V:2] z4z2F2- | 
[V:3] d2e2f2d2 | 
[V:4] B,2G,2F,3G, | 
[V:1] z8 | 
[V:2] F2F2G4 | 
[V:3] c2f4e2 | 
[V:4] A,2B,2G,4 | 
[V:1] z2c4c2 | 
[V:2] A4z2F2 | 
[V:3] f8 | 
[V:4] F,8 | 
[V:1] d4e4 | 
[V:2] B2B2A3G | 
[V:3] z8 | 
[V:4] z8 | 
[V:1] z2c2f2f2 | 
[V:2] F2E2D4 | 
[V:3] z8 | 
[V:4] z2C4B,2 | 
[V:1] e3dc2B2 | 
[V:2] C4z4 | 
[V:3] z2e2e2e2 | 
[V:4] C3B,A,2G,2 | 
[V:1] A4z2A2 | 
[V:2] z8 | 
[V:3] f4z2e2 | 
[V:4] F,4z2C2 | 
[V:1] A2A2B3A | 
[V:2] z8 | 
[V:3] e2e2f3e | 
[V:4] C2C2D3C | 
[V:1] G2F2B4 | 
[V:2] z8 | 
[V:3] d2c2d4 | 
[V:4] B,2A,2G,2B,2 | 
[V:1] A4z2e2 | 
[V:2] z4z2G2 | 
[V:3] c4z2c2 | 
[V:4] F,4C,4 | 
[V:1] e2e2f3e | 
[V:2] G2G2A4- | 
[V:3] c2c2F4 | 
[V:4] z8 | 
[V:1] d2c2f4 | 
[V:2] A2G2A4 | 
[V:3] z8 | 
[V:4] z8 | 
[V:1] e8 | 
[V:2] G8 | 
[V:3] z4z2c2 | 
[V:4] z2C,2C,2C,2 | 
[V:1] z2c2c2c2 | 
[V:2] A8 | 
[V:3] c2c2f3f | 
[V:4] F,3F,F,4 | 
[V:1] f3ff4 | 
[V:2] z2F2F2F2 | 
[V:3] f4z2d2 | 
[V:4] z2D,2D,2D,2 | 
[V:1] z2d2d2d2 | 
[V:2] B3BB4 | 
[V:3] d2d2g4- | 
[V:4] G,6F,2 | 
[V:1] g6f2 | 
[V:2] z2G2G2G2 | 
[V:3] g2f2e3d | 
[V:4] E,3D,C,4 | 
[V:1] e3dc2d2- | 
[V:2] c6B2 | 
[V:3] c4g4 | 
[V:4] z2C,4G,2 | 
[V:1] dcc3AB2 | 
[V:2] A4G4 | 
[V:3] e2f2d4- | 
[V:4] A,2F,2G,4 | 
[V:1] A8 | 
[V:2] F8 | 
[V:3] d2cBA4 | 
[V:4] D,4z2F,2 | 
[V:1] z8 | 
[V:2] z8 | 
[V:3] z2c2B2c2 | 
[V:4] E,2F,2G,2F,2 | 
[V:1] z8 | 
[V:2] z8 | 
[V:3] d2c2z2e2 | 
[V:4] z2A,2C4 | 
[V:1] z8 | 
[V:2] z8 | 
[V:3] g4d2f2- | 
[V:4] G,2B,4A,2 | 
[V:1] z8 | 
[V:2] z8 | 
[V:3] f2e2f2d2- | 
[V:4] B,2G,2F,4- | 
[V:1] z8 | 
[V:2] z4F4 | 
[V:3] d2c4=B2 | 
[V:4] F,2E,2D,4 | 
[V:1] c6d2 | 
[V:2] E6F2 | 
[V:3] c8 | 
[V:4] C,8 | 
[V:1] e4f3e | 
[V:2] G4A3G | 
[V:3] z8 | 
[V:4] z8 | 
[V:1] d2c4=B2 | 
[V:2] F2E2D4 | 
[V:3] z8 | 
[V:4] z8 | 
[V:1] c4z2c2 | 
[V:2] C2F2G2A2 | 
[V:3] z8 | 
[V:4] z8 | 
[V:1] d2e2f2g2- | 
[V:2] B2G2A2B2 | 
[V:3] z8 | 
[V:4] z8 | 
[V:1] gff4e2 | 
[V:2] c2A2G4 | 
[V:3] z8 | 
[V:4] z4C,4 | 
[V:1] f4z4 | 
[V:2] F4z4 | 
[V:3] F4G4 | 
[V:4] D,2F,4E,2 | 
[V:1] z8 | 
[V:2] z8 | 
[V:3] A3Bc2d2- | 
[V:4] F,2A,4G,2 | 
[V:1] z8 | 
[V:2] z8 | 
[V:3] d2c4=B2 | 
[V:4] F,2E,2D,4 | 
[V:1] z8 | 
[V:2] z8 | 
[V:3] c4z2c2- | 
[V:4] C,3D,E,2F,G, | 
[V:1] z8 | 
[V:2] z8 | 
[V:3] c2c2d4 | 
[V:4] A,B,C4=B,2 | 
[V:1] z8 | 
[V:2] z8 | 
[V:3] e4f3e | 
[V:4] C4z2F,2- | 
[V:1] z8 | 
[V:2] z8 | 
[V:3] d2c4B2 | 
[V:4] F,2F,2G,4 | 
[V:1] z8 | 
[V:2] z8 | 
[V:3] c4d3c | 
[V:4] A,4B,3A, | 
[V:1] z8 | 
[V:2] z8 | 
[V:3] B2A2G4 | 
[V:4] G,2F,4E,2 | 
[V:1] z2c4c2 | 
[V:2] z2A4A2 | 
[V:3] A4z4 | 
[V:4] F,4z4 | 
[V:1] d2e2f2d2 | 
[V:2] B2G2A2B2 | 
[V:3] z8 | 
[V:4] z8 | 
[V:1] e3dc2B2 | 
[V:2] c3BA2G2 | 
[V:3] z8 | 
[V:4] z8 | 
[V:1] A2G2c4 | 
[V:2] F2B4A2- | 
[V:3] z8 | 
[V:4] z4z2F,2 | 
[V:1] B4A2c2 | 
[V:2] A2G2A4 | 
[V:3] z4z2c2 | 
[V:4] G,2E,2F,2A,2 | 
[V:1] B2d4c2- | 
[V:2] B2G2A2G2- | 
[V:3] d2B2c2e2 | 
[V:4] G,4F,2C,2 | 
[V:1] c2B2c2f2- | 
[V:2] GFG2E2A2- | 
[V:3] d4c4- | 
[V:4] G,4A,2F,2 | 
[V:1] fee2c2d2- | 
[V:2] A2G2A2D2 | 
[V:3] c4z2f2- | 
[V:4] C4F,2B,2- | 
[V:1] dcc2A2B2- | 
[V:2] z2E2F2G2- | 
[V:3] fee2c2d2- | 
[V:4] B,CA,4G,2- | 
[V:1] BBA2F2G2- | 
[V:2] GEF2D2_E2- | 
[V:3] dcc2A2B2- | 
[V:4] G,A,F,4_E,2- | 
[V:1] G2F4E2 | 
[V:2] EFC2G4 | 
[V:3] BFA2G4 | 
[V:4] E,D,F,2C,4 | 
[V:1] F8- | 
[V:2] A8- | 
[V:3] F8- | 
[V:4] F,8- | 
[V:1] F8- | 
[V:2] A8 | 
[V:3] F8- | 
[V:4] F,8- | 
[V:1] F8 ||  
[V:2] C8 ||  
[V:3] F8 ||  
[V:4] F,8 ||  
[V:1]  [K:F] [K:clef=treble][M:2/1]c6A2 | 
[V:2]  [K:F] [K:clef=treble][M:2/1]z8 | 
[V:3]  [K:F] [K:clef=treble-8][M:2/1]z8 | 
[V:4]  [K:F] [K:clef=bass][M:2/1]z8 | 
[V:1] B2c2d2d2 | 
[V:2] z8 | 
[V:3] z8 | 
[V:4] z8 | 
[V:1] c4A2B2 | 
[V:2] F6D2 | 
[V:3] z8 | 
[V:4] z8 | 
[V:1] c2d4cB | 
[V:2] E2F2G2G2 | 
[V:3] z8 | 
[V:4] z8 | 
[V:1] A2f4e2 | 
[V:2] F3GABc2- | 
[V:3] z8 | 
[V:4] z8 | 
[V:1] d4e2cd | 
[V:2] c2B2c3B | 
[V:3] z8 | 
[V:4] z8 | 
[V:1] efg4f2- | 
[V:2] A2G2A2F2 | 
[V:3] z2c4A2 | 
[V:4] z8 | 
[V:1] f2e2f4- | 
[V:2] G4F4- | 
[V:3] B2c2d2d2 | 
[V:4] z8 | 
[V:1] f4z4 | 
[V:2] F8 | 
[V:3] c4f4 | 
[V:4] F,6D,2 | 
[V:1] z8 | 
[V:2] z8 | 
[V:3] e2d4cB | 
[V:4] E,2F,2G,2G,2 | 
[V:1] z8 | 
[V:2] z8 | 
[V:3] A2f4ed | 
[V:4] F,4B,4 | 
[V:1] z8 | 
[V:2] z8 | 
[V:3] c2d2Bcde | 
[V:4] A,2G,4F,E, | 
[V:1] z8 | 
[V:2] z8 | 
[V:3] f2g4f2- | 
[V:4] D,2B,4A,2 | 
[V:1] z4z2c2 | 
[V:2] z4z2A2 | 
[V:3] f2e2f4 | 
[V:4] G,4F,4 | 
[V:1] c3cc4 | 
[V:2] A3AA4 | 
[V:3] z2c2c3c | 
[V:4] z2F,2F,3F, | 
[V:1] z2A4A2 | 
[V:2] z2F4F2 | 
[V:3] c4z2c2- | 
[V:4] F,8 | 
[V:1] A2A2B2A2- | 
[V:2] E2E2F2E2- | 
[V:3] c2c2d2c2- | 
[V:4] z8 | 
[V:1] A2GFG4 | 
[V:2] E2DCD2E2 | 
[V:3] c2BAB2c2 | 
[V:4] z4z2C2 | 
[V:1] A4z4 | 
[V:2] F2A2B2A2- | 
[V:3] F4z4 | 
[V:4] C2C2D2C2- | 
[V:1] z8 | 
[V:2] A2GFG4 | 
[V:3] z8 | 
[V:4] C2B,A,B,2C2 | 
[V:1] z4c4 | 
[V:2] A8 | 
[V:3] c4f4- | 
[V:4] F,4z4 | 
[V:1] f6f2 | 
[V:2] z4F4 | 
[V:3] f2f2f4 | 
[V:4] F,4B,4- | 
[V:1] f4f4 | 
[V:2] B6B2 | 
[V:3] f4d4 | 
[V:4] B,2B,2B,4 | 
[V:1] d4z2d2- | 
[V:2] B4B4 | 
[V:3] z2d4d2 | 
[V:4] B,4G,4 | 
[V:1] d2d2d4 | 
[V:2] G4z2G2- | 
[V:3] d4B3G | 
[V:4] G,6G,2 | 
[V:1] B3GG4 | 
[V:2] G2G2G4 | 
[V:3] G4z2g2 | 
[V:4] G,4E,3C, | 
[V:1] z2g2g2g2 | 
[V:2] E3CC4 | 
[V:3] g2g2e3c | 
[V:4] C,4z2C2 | 
[V:1] e3ec4 | 
[V:2] z2c2c2c2 | 
[V:3] c4c4 | 
[V:4] C2C2A,3F, | 
[V:1] c4f4- | 
[V:2] A3FF4 | 
[V:3] f6e2 | 
[V:4] F,4F,4- | 
[V:1] f2e2d2c2- | 
[V:2] F2F2A2A2 | 
[V:3] d2c2f3e | 
[V:4] F,2F,2F,2F,2 | 
[V:1] c2=B2c4- | 
[V:2] G4E4 | 
[V:3] d4c4 | 
[V:4] G,4C,4 | 
[V:1] c4z4 | 
[V:2] z8 | 
[V:3] z2e2e2e2 | 
[V:4] z2C2C2C2 | 
[V:1] z8 | 
[V:2] z8 | 
[V:3] d2g3ff2- | 
[V:4] G,4B,2A,2 | 
[V:1] z4z2f2 | 
[V:2] z4z2A2 | 
[V:3] f2e2f4 | 
[V:4] B,2G,2F,4 | 
[V:1] f2f2e4 | 
[V:2] A2B2c4 | 
[V:3] z8 | 
[V:4] z8 | 
[V:1] d2g4f2- | 
[V:2] G2B4A2 | 
[V:3] z8 | 
[V:4] z8 | 
[V:1] f2e2f4- | 
[V:2] G3F/E/D4- | 
[V:3] z4z2f2- | 
[V:4] z4z2B,2- | 
[V:1] f4z4 | 
[V:2] D4z4 | 
[V:3] f2f2f4 | 
[V:4] B,2B,2B,2A,2 | 
[V:1] z2f4f2 | 
[V:2] B4B2B2- | 
[V:3] e2d2f3f | 
[V:4] G,2B,4B,2 | 
[V:1] f4e2d2 | 
[V:2] B2A2G2B2- | 
[V:3] f4z4 | 
[V:4] F,4z4 | 
[V:1] f3ff4 | 
[V:2] B2B2F4 | 
[V:3] z4z2c2 | 
[V:4] z4z2F,2 | 
[V:1] z8 | 
[V:2] z8 | 
[V:3] d2e2f4 | 
[V:4] F,2G,2A,4 | 
[V:1] z8 | 
[V:2] z8 | 
[V:3] e2d4^c2 | 
[V:4] G,2F,2E,4 | 
[V:1] z2f4e2 | 
[V:2] z2A4G2 | 
[V:3] d4z4 | 
[V:4] D,4z4 | 
[V:1] d2c2d3c | 
[V:2] F2E2F3C | 
[V:3] z8 | 
[V:4] z8 | 
[V:1] c2=B2c4 | 
[V:2] E2D2C4 | 
[V:3] z4z2f2- | 
[V:4] z4z2A,2- | 
[V:1] z8 | 
[V:2] z8 | 
[V:3] f2e2d2c2 | 
[V:4] A,2G,2F,2E,2 | 
[V:1] z8 | 
[V:2] z8 | 
[V:3] d3cc2=B2 | 
[V:4] F,2C,2E,2D,2 | 
[V:1] z8 | 
[V:2] G4c4- | 
[V:3] c8 | 
[V:4] C,4z2C,2 | 
[V:1] z4c4 | 
[V:2] c2c2c4 | 
[V:3] z2c2f4- | 
[V:4] F,6F,2 | 
[V:1] f6f2 | 
[V:2] c4A4 | 
[V:3] f2f2f4 | 
[V:4] F,4F,4 | 
[V:1] f4f2d2 | 
[V:2] z2d4d2 | 
[V:3] f4d4 | 
[V:4] D,4z2G,2- | 
[V:1] d4z2g2- | 
[V:2] d2B4G2 | 
[V:3] z2g4g2 | 
[V:4] G,2G,2G,2E,2- | 
[V:1] g2g2g2e2- | 
[V:2] G4z2G2 | 
[V:3] g2e4c2 | 
[V:4] E,2C,2C,4 | 
[V:1] e2c2c4 | 
[V:2] G2G2E3C | 
[V:3] c4z2c2 | 
[V:4] z2C2C2C2 | 
[V:1] z2c2c2c2 | 
[V:2] C4c4- | 
[V:3] c2c2A3F | 
[V:4] A,3F,F,4 | 
[V:1] A3FF4 | 
[V:2] c2B2A2G2 | 
[V:3] F4f3e | 
[V:4] z4F,4- | 
[V:1] f3ed2c2- | 
[V:2] F4A4 | 
[V:3] d2c2f3e | 
[V:4] F,2F,2F,2F,2 | 
[V:1] c2=B2c4- | 
[V:2] G4E4 | 
[V:3] d4c4 | 
[V:4] G,4C,4 | 
[V:1] c4z4 | 
[V:2] z8 | 
[V:3] z2e2e2d2 | 
[V:4] z2C2C2B,2 | 
[V:1] z8 | 
[V:2] z8 | 
[V:3] f4e2f2 | 
[V:4] A,4G,2F,2 | 
[V:1] z4z2e2 | 
[V:2] z4z2c2 | 
[V:3] d2d2c4 | 
[V:4] B,2B,2A,4 | 
[V:1] e2d2f4 | 
[V:2] c2B2A4 | 
[V:3] z8 | 
[V:4] z8 | 
[V:1] e2f2d2d2 | 
[V:2] G2F2G2G2 | 
[V:3] z2d2d4 | 
[V:4] z2B,4B,2 | 
[V:1] c8 | 
[V:2] A4z4 | 
[V:3] f4c2c2 | 
[V:4] F,4A,2A,2 | 
[V:1] z4f2f2 | 
[V:2] B2B2A4 | 
[V:3] d2e2f4 | 
[V:4] G,2G,2F,4 | 
[V:1] e4d2c2 | 
[V:2] G3AB2A2 | 
[V:3] z8 | 
[V:4] C,4z4 | 
[V:1] d2e2f4 | 
[V:2] G2G2F4 | 
[V:3] z4f3e | 
[V:4] z4F,4- | 
[V:1] z8 | 
[V:2] z8 | 
[V:3] d2c2B2A2- | 
[V:4] F,2E,2D,2C,2 | 
[V:1] z4c4 | 
[V:2] z4A4- | 
[V:3] A2G2A4 | 
[V:4] B,,4A,,4 | 
[V:1] c2d4c2- | 
[V:2] A2G2F2E2 | 
[V:3] z8 | 
[V:4] z8 | 
[V:1] c2=B2c4 | 
[V:2] D4C4 | 
[V:3] z8 | 
[V:4] z8 | 
[V:1] A4A2B2- | 
[V:2] F4F2F2- | 
[V:3] c4c2d2- | 
[V:4] F,4F,2B,,2- | 
[V:1] B2A2A2G2 | 
[V:2] F2F2D2E2 | 
[V:3] d2c2B2B2 | 
[V:4] B,,2F,2G,2G,2 | 
[V:1] [M:3/1]A8z4 | 
[V:2] [M:3/1]F8z4 | 
[V:3] [M:3/1]A8z4 | 
[V:4] [M:3/1]F,12 | 
[V:1] A4A4B4 | 
[V:2] F4F4G4 | 
[V:3] z12 | 
[V:4] z12 | 
[V:1] c8B4 | 
[V:2] A8G4 | 
[V:3] z12 | 
[V:4] z12 | 
[V:1] A4A4G4 | 
[V:2] F8E4 | 
[V:3] z12 | 
[V:4] z12 | 
[V:1] A8z4 | 
[V:2] F4D4E4 | 
[V:3] A4A4B4 | 
[V:4] F,4F,4G,4 | 
[V:1] z12 | 
[V:2] F8E4 | 
[V:3] c8B4 | 
[V:4] A,8G,4 | 
[V:1] z12 | 
[V:2] D8^C4 | 
[V:3] A4A4G4 | 
[V:4] F,4E,8 | 
[V:1] f8f4 | 
[V:2] D6E2F4 | 
[V:3] A8z4 | 
[V:4] D,8z4 | 
[V:1] e4d6c2 | 
[V:2] G8E4 | 
[V:3] z12 | 
[V:4] z12 | 
[V:1] c8B4 | 
[V:2] F4D8 | 
[V:3] z12 | 
[V:4] F,4F,4G,4 | 
[V:1] c6B2A4 | 
[V:2] C8z4 | 
[V:3] c8d4 | 
[V:4] A,8F,4 | 
[V:1] G4B6A2 | 
[V:2] z12 | 
[V:3] e4d6c2 | 
[V:4] G,6F,2E,4 | 
[V:1] A6G2F4 | 
[V:2] z4z4D4 | 
[V:3] c8B4 | 
[V:4] F,4D,8 | 
[V:1] E4G8 | 
[V:2] G4E4F4 | 
[V:3] c6B2A4 | 
[V:4] C,8D,4 | 
[V:1] F8E4 | 
[V:2] D4C8 | 
[V:3] B4G4G4 | 
[V:4] B,,4C,8 | 
[V:1] [M:2/1]F8 | 
[V:2] [M:2/1]C4z4 | 
[V:3] [M:2/1]F4z2f2 | 
[V:4] [M:2/1]z2C2B,2A,2 | 
[V:1] z8 | 
[V:2] z8 | 
[V:3] e2d2c2f2- | 
[V:4] G,2G,2A,3G, | 
[V:1] z8 | 
[V:2] z4z2c2 | 
[V:3] fed4^c2 | 
[V:4] F,2G,2E,2E,2 | 
[V:1] z2f2e2d2 | 
[V:2] B2A2G2G2 | 
[V:3] d2A2c2B2 | 
[V:4] D,4z4 | 
[V:1] c2f3ed2- | 
[V:2] A3GF2G2 | 
[V:3] A2d4G2 | 
[V:4] z8 | 
[V:1] d2^c2d2f2- | 
[V:2] E2E2D4 | 
[V:3] A4f4 | 
[V:4] z4z2D2- | 
[V:1] f2e2d2c2 | 
[V:2] z8 | 
[V:3] f2g4f2- | 
[V:4] D2C2B,2A,2 | 
[V:1] B4ABcd | 
[V:2] G4c4- | 
[V:3] f2e2f4 | 
[V:4] G,4F,4 | 
[V:1] efg4f2- | 
[V:2] c2B2A2F2 | 
[V:3] z8 | 
[V:4] z8 | 
[V:1] f2e2f4 | 
[V:2] G4F4- | 
[V:3] z4c2c2 | 
[V:4] z4F,2F,2 | 
[V:1] z4c2c2 | 
[V:2] F4A2A2 | 
[V:3] d3dc4 | 
[V:4] B,3B,F,4 | 
[V:1] d3dc4 | 
[V:2] B3BA4 | 
[V:3] z4c2c2 | 
[V:4] z4F,2F,2 | 
[V:1] F2F2c3d | 
[V:2] B3BA4 | 
[V:3] d3dc4 | 
[V:4] B,3B,F,G,A,B, | 
[V:1] e2f4e2 | 
[V:2] G2B4A2- | 
[V:3] z2f2d2e2 | 
[V:4] C2D4C2 | 
[V:1] d4c4 | 
[V:2] A2G2A4 | 
[V:3] f2d2e4 | 
[V:4] B,4A,4 | 
[V:1] A3Bc2d2- | 
[V:2] z2A4G2- | 
[V:3] f4e2d2 | 
[V:4] F,3G,A,2B,2- | 
[V:1] d2c2B4 | 
[V:2] G2F4E2 | 
[V:3] f2c2d2B2 | 
[V:4] B,2A,2G,4 | 
[V:1] A4F3G | 
[V:2] F6A2- | 
[V:3] c4A3B | 
[V:4] F,4z2F,2- | 
[V:1] A2B3AGF | 
[V:2] AGFED4 | 
[V:3] c2d3cBA | 
[V:4] F,2B,,2B,,4 | 
[V:1] E8- | 
[V:2] C8 | 
[V:3] G8- | 
[V:4] C,8- | 
[V:1] !fermata!E8 | 
[V:2] !fermata!C8 | 
[V:3] !fermata!G8 | 
[V:4] !fermata!C,8 | 
[V:1] F8- | 
[V:2] C8- | 
[V:3] F8 | 
[V:4] F,8- | 
[V:1] F8 |]  
[V:2] C8 |]  
[V:3] F8 |]  
[V:4] F,8 |]  



